X: 1
T: The Road Home
M: 3/4
L: 1/8
K: Gmaj
|: B6       | B2 d3 B  | A6          | A2  B2 d2 | e4 g2 | g2 f2 d2 | e  g3-g2- |  g2   b3  a   |
   g3  b g2 | f2 e2 d2 | e   g3 e2   | d4  B2    | A6    | A2 B2 G2 | F6        |1 G,A, B,D EG :|2 F2 E2 F2 ||
|: G6       | G2 F2 D2 | A,  G,3-G,2 | G,4 G2    | G4 G2 | G2 A2 B2 | A6        |  A2   B3  A   |
   G6-      | G2 g2 f2 | e4- ed      | d4  B2    | A6    | A2 B2 G2 | F6        |  F2   E2  F2 :|